Yaru++/apps/scalable/mypaint.svg

<svg height="256" width="256" xmlns="http://www.w3.org/2000/svg" xmlns:xlink="http://www.w3.org/1999/xlink">
  <linearGradient id="linearGradient4358" gradientTransform="matrix(0 -1 1 0 -10.0054 585.9946)" gradientUnits="userSpaceOnUse" x1="88" x2="488" y1="88" y2="488">
    <stop offset="0" stop-opacity=".588235"/>
    <stop offset=".88" stop-opacity="0"/>
    <stop offset="1"/>
  </linearGradient>
  <filter id="filter4380" color-interpolation-filters="sRGB" height="1.088" width="1.106" x="-.05" y="-.04">
    <feGaussianBlur stdDeviation="8.48"/>
  </filter>
  <filter id="filter4346" color-interpolation-filters="sRGB" height="1.022" width="1.026" x="-.01" y="-.01">
    <feGaussianBlur stdDeviation="2.12"/>
  </filter>
  <linearGradient id="o" gradientTransform="matrix(-1.0184197 0 0 1.0184197 551.3964 175.59245)" gradientUnits="userSpaceOnUse" x1="418.838" x2="433.35" y1="227" y2="212.868">
    <stop offset="0" stop-color="#9a9996"/>
    <stop offset=".416" stop-color="#c0bfbc"/>
    <stop offset="1" stop-color="#deddda"/>
  </linearGradient>
  <radialGradient id="p" cx="450.948" cy="225.395" gradientTransform="matrix(-1.777786 0 0 1.777786 910.46278 -16.715252)" gradientUnits="userSpaceOnUse" r="40">
    <stop offset="0" stop-color="#5b5b5b"/>
    <stop offset=".634" stop-color="#262e39"/>
    <stop offset="1" stop-color="#113f78"/>
  </radialGradient>
  <linearGradient id="q" gradientUnits="userSpaceOnUse" x1="-16.80450325" x2="60.00887618" y1="353.509256" y2="430.32263543">
    <stop offset="0" stop-color="#a347ba"/>
    <stop offset="1" stop-color="#103c72"/>
  </linearGradient>
  <radialGradient id="r" cx="67.567" cy="250.281" gradientTransform="matrix(2.1617881 -.01770789 .01008486 1.2311304 -62.093516 127.75307)" gradientUnits="userSpaceOnUse" r="11.077">
    <stop offset="0" stop-color="#113f78" stop-opacity="0"/>
    <stop offset=".786" stop-color="#113f78" stop-opacity=".106"/>
    <stop offset="1" stop-color="#103c72"/>
  </radialGradient>
  <linearGradient id="linearGradient965" gradientTransform="matrix(-1.0184197 0 0 1.0184197 1210.73 -275.11941)" gradientUnits="userSpaceOnUse" x1="953.275" x2="944.207" y1="350.856" y2="359.924">
    <stop offset="0" stop-color="#e9b96e"/>
    <stop offset="1" stop-color="#dc9321"/>
  </linearGradient>
  <path d="m189.84323 74c-70.59344 0-78.18921 7.250835-77.84323 77.98706v146.01294 146.01294c-.34598 70.73623 7.24979 77.98706 77.84323 77.98706h196.31354c70.59344 0 76.00668-7.27384 77.84323-77.98706v-146.01294-146.01294c0-70.737067-7.24979-77.98706-77.84323-77.98706z" filter="url(#filter4346)" opacity=".1" transform="matrix(0 .5 -.5 0 276.82523 -15.328148)"/>
  <path d="m189.84323 74c-70.59344 0-78.18921 7.250835-77.84323 77.98706v146.01294 146.01294c-.34598 70.73623 7.24979 77.98706 77.84323 77.98706h196.31354c70.59344 0 77.84323-7.24999 77.84323-77.98706v-146.01294-146.01294c0-70.737067-7.24979-77.98706-77.84323-77.98706z" fill="url(#linearGradient4358)" filter="url(#filter4380)" opacity=".3" transform="matrix(0 .5 -.5 0 276.82523 -15.328148)"/>
  <path d="m241.83043 77.478254c0-36.098811-3.69016-39.983003-39.68984-39.806081h-74.31016-74.310153c-35.99969-.176922-39.68984 3.70727-39.68984 39.806081v100.387326c0 36.09881 3.68973 39.80608 39.68984 39.80608h74.310153 74.31016c36.00011 0 39.68984-3.70727 39.68984-39.80608z" opacity=".1"/>
  <path d="m239.82523 176.74484c0 35.29673-3.62542 39.09461-38.99353 38.92162h-73.00647-73.006463c-35.36812.17299-38.99353-3.62489-38.99353-38.92162v-98.156766c0-35.296716 3.625-38.921616 38.99353-38.921616h73.006463 73.00647c35.36853 0 38.99353 3.6249 38.99353 38.921616z" fill="#f6f5f4"/>
  <path d="m15.825984 119.86077v66.67439c0 26.41995 3.624067 29.26289 38.992187 29.1334h73.007809 73.00586c35.36811.12949 38.99414-2.71345 38.99414-29.1334v-66.67439z" fill="#fff" opacity=".3"/>
  <path d="m54.818171 39.667201c-35.36853 0-38.992187 3.623202-38.992187 38.919923v98.158206c0 .0882.0019.16224.002.25v-96.410156c-.000047-35.29672 3.625564-38.921879 38.994094-38.921879h73.005852 73.00586c35.28016 0 38.97394 3.621035 38.99219 38.671879v-1.74805c0-35.296721-3.62561-38.919923-38.99414-38.919923h-73.00586z" fill="#fff" opacity=".3"/>
  <path d="m15.825984 174.74533v2c0 35.29673 3.624067 39.09487 38.992187 38.92188h73.007809 73.00586c35.36811.17299 38.99414-3.62515 38.99414-38.92188v-2c0 35.29673-3.62603 39.09487-38.99414 38.92188h-73.00586-73.007809c-35.36812.17299-38.992187-3.62515-38.992187-38.92188z" opacity=".2"/>
  <g transform="translate(48.286108 -234.809468)">
    <path d="m239.82617 102.01172v-23.423829c0-.45982-.02214-.781338-.02344-1.230469-5.62216.186198-11.34788 2.151387-16.18359 6.298828l-88.82617 88.83203a12.222765 12.222765 0 1 0 17.2793 17.28125z" fill="url(#linearGradient965)" transform="translate(-48.286109 234.80947)"/>
    <path d="m152.97315 341.82207c14.62629.006 21.84118 17.78779 11.35033 27.98279l-57.03021 57.03237a16.296108 16.296108 0 1 1 -23.046175-23.04618l57.032365-57.03237a16.29558 16.29558 0 0 1 11.69369-4.93661z" fill="url(#o)"/>
    <path d="m105.74707 362.14727c23.85166 0 43.18998 19.33616 43.18998 43.18998 0 23.85383-19.33832 43.18999-43.18998 43.18999h-43.189984v-43.18999c0-23.85382 19.336155-43.18998 43.189984-43.18998z" fill="url(#p)"/>
    <circle cx="-107.9" cy="-385.908" fill="#fff" opacity=".3" r="6.472" transform="scale(-1)"/>
    <path d="m-32.460872 318.67008v51.82798a20.808933 20.808933 0 0 1 14.410337-2.16814 20.808933 20.808933 0 0 1 12.2357218 7.9124c3.8071968 5.16121 4.99492123 11.79519 5.30588913 18.20242.31096786 6.40508-.14468644 12.87062.85300213 19.20659 1.35832494 8.63799 5.48512754 16.83113 11.68288994 22.99866 6.197763 6.16969 14.440571 10.2641 23.113119 11.38056 5.636293.72775 11.348168.43622 17.031969.45781l10.38503.0389v-2.86782-1.45118a154.24654 154.24654 0 0 0 -13.291715-2.5007c-2.900208-.41463-5.826329-.75151-8.635837-1.58723-2.807349-.83573-5.528318-2.21781-7.471867-4.4097-1.634741-1.84421-2.647546-4.18943-3.088083-6.61455-.442698-2.42511-.328244-4.92797.107974-7.35309.872438-4.8524 3.001704-9.37007 4.599733-14.03243 5.17632-15.09058 4.686113-31.9541-.809812-46.93023-6.059554-16.50505-18.45292-30.90891-34.57358053-37.92944a58.464118 58.464118 0 0 0 -31.85477047-4.18081z" fill="url(#q)"/>
    <path d="m42.918603 440.69689 9.251294 7.79147 44.939174.0389-8.873382-8.5365c-8.819394-8.48684-19.48516-13.05849-25.678603-13.05849 0 12.95699-12.011132 15.33244-19.638483 13.7668z" fill="url(#r)"/>
  </g>
</svg>

<svg xmlns="http://www.w3.org/2000/svg" xmlns:osb="http://www.openswatchbook.org/uri/2009/osb" xmlns:xlink="http://www.w3.org/1999/xlink" width="256" height="256" version="1.1">
 <defs>
  <linearGradient id="linearGradient5606" osb:paint="solid">
   <stop id="stop5608" offset="0" style="stop-color:#000000"/>
  </linearGradient>
  <linearGradient id="linearGradient4526" osb:paint="solid">
   <stop id="stop4528" offset="0" style="stop-color:#ffffff"/>
  </linearGradient>
  <linearGradient id="linearGradient3600-4" osb:paint="gradient">
   <stop id="stop3602-7" offset="0" style="stop-color:#f4f4f4"/>
   <stop id="stop3604-6" offset="1" style="stop-color:#dbdbdb"/>
  </linearGradient>
  <linearGradient id="linearGradient4358" x1="88" x2="488" y1="88" y2="488" gradientTransform="rotate(-90,287.9946,298)" gradientUnits="userSpaceOnUse" xlink:href="#linearGradient4360"/>
  <linearGradient id="linearGradient4360">
   <stop id="stop4362" offset="0" style="stop-color:#000000;stop-opacity:0.58823532"/>
   <stop style="stop-color:#000000;stop-opacity:0" id="stop4364" offset=".88"/>
   <stop id="stop4366" offset="1" style="stop-color:#000000"/>
  </linearGradient>
  <filter style="color-interpolation-filters:sRGB" id="filter4380" width="1.106" height="1.088" x="-.05" y="-.04">
   <feGaussianBlur id="feGaussianBlur4382" stdDeviation="8.48"/>
  </filter>
  <filter style="color-interpolation-filters:sRGB" id="filter4346" width="1.026" height="1.022" x="-.01" y="-.01">
   <feGaussianBlur id="feGaussianBlur4348" stdDeviation="2.12"/>
  </filter>
  <linearGradient id="l" x1="61.86" x2="61.86" y1="183.5" y2="295.549" gradientTransform="translate(-171.471,83.946)" gradientUnits="userSpaceOnUse" xlink:href="#k"/>
  <linearGradient id="k">
   <stop id="stop2" offset="0" stop-color="#cdab8f"/>
   <stop id="stop4" offset="1" stop-color="#986a44"/>
  </linearGradient>
  <linearGradient id="m" x1="48" x2="464" y1="44" y2="44" gradientTransform="matrix(0.25,0,0,0.24405,-272.83954,357.43661)" gradientUnits="userSpaceOnUse" xlink:href="#i"/>
  <linearGradient id="i">
   <stop id="stop52" offset="0" stop-color="#babdb6"/>
   <stop id="stop54" offset=".042" stop-color="#f6f5f4"/>
   <stop id="stop56" offset=".083" stop-color="#d5d3cf"/>
   <stop id="stop58" offset=".917" stop-color="#deddda"/>
   <stop id="stop60" offset=".958" stop-color="#f6f5f4"/>
   <stop id="stop62" offset="1" stop-color="#babdb6"/>
  </linearGradient>
  <linearGradient id="n" x1="953.275" x2="944.207" y1="350.856" y2="359.924" gradientTransform="matrix(-1.0184197,0,0,1.0184197,1162.4439,-40.309938)" gradientUnits="userSpaceOnUse" xlink:href="#h"/>
  <linearGradient id="h">
   <stop id="stop40" offset="0" stop-color="#e9b96e"/>
   <stop id="stop42" offset="1" stop-color="#dc9321"/>
  </linearGradient>
  <linearGradient id="o" x1="418.838" x2="433.35" y1="227" y2="212.868" gradientTransform="matrix(-1.0184197,0,0,1.0184197,551.3964,175.59245)" gradientUnits="userSpaceOnUse" xlink:href="#g"/>
  <linearGradient id="g">
   <stop id="stop45" offset="0" stop-color="#9a9996"/>
   <stop id="stop47" offset=".416" stop-color="#c0bfbc"/>
   <stop id="stop49" offset="1" stop-color="#deddda"/>
  </linearGradient>
  <radialGradient id="p" cx="450.948" cy="225.395" r="40" fx="450.948" fy="225.395" gradientTransform="matrix(-1.777786,0,0,1.777786,910.46278,-16.715252)" gradientUnits="userSpaceOnUse" xlink:href="#f"/>
  <linearGradient id="f">
   <stop id="stop65" offset="0" stop-color="#5b5b5b"/>
   <stop id="stop67" offset=".634" stop-color="#262e39"/>
   <stop id="stop69" offset="1" stop-color="#113f78"/>
  </linearGradient>
  <linearGradient id="q" x1="19.25" x2="54.82" y1="44" y2="79.57" gradientTransform="matrix(2.159499,0,0,2.159499,-58.374859,258.4913)" gradientUnits="userSpaceOnUse" xlink:href="#j"/>
  <linearGradient id="j">
   <stop id="stop72" offset="0" stop-color="#a347ba"/>
   <stop id="stop74" offset="1" stop-color="#103c72"/>
  </linearGradient>
  <radialGradient id="r" cx="67.567" cy="250.281" r="11.077" fx="67.567" fy="250.281" gradientTransform="matrix(2.1617881,-0.01770789,0.01008486,1.2311304,-62.093516,127.75307)" gradientUnits="userSpaceOnUse" xlink:href="#e"/>
  <linearGradient id="e">
   <stop id="stop18" offset="0" stop-color="#113f78" stop-opacity="0"/>
   <stop id="stop20" offset=".786" stop-color="#113f78" stop-opacity=".106"/>
   <stop id="stop22" offset="1" stop-color="#103c72"/>
  </linearGradient>
  <linearGradient id="linearGradient965" x1="953.275" x2="944.207" y1="350.856" y2="359.924" gradientTransform="matrix(-1.0184197,0,0,1.0184197,1210.73,-275.11941)" gradientUnits="userSpaceOnUse" xlink:href="#h"/>
 </defs>
 <path style="opacity:0.1;filter:url(#filter4346)" d="M 189.84323,74 C 119.24979,74 111.65402,81.250835 112,151.98706 V 298 444.01294 C 111.65402,514.74917 119.24979,522 189.84323,522 H 386.15677 C 456.75021,522 462.16345,514.72616 464,444.01294 V 298 151.98706 C 464,81.249993 456.75021,74 386.15677,74 Z" transform="matrix(0,0.5,-0.5,0,276.82523,-15.328148)"/>
 <path d="M 189.84323,74 C 119.24979,74 111.65402,81.250835 112,151.98706 V 298 444.01294 C 111.65402,514.74917 119.24979,522 189.84323,522 H 386.15677 C 456.75021,522 464,514.75001 464,444.01294 V 298 151.98706 C 464,81.249993 456.75021,74 386.15677,74 Z" transform="matrix(0,0.5,-0.5,0,276.82523,-15.328148)" style="opacity:0.3;fill:url(#linearGradient4358);filter:url(#filter4380)"/>
 <path style="opacity:0.1" d="m 241.83043,77.478254 c 0,-36.098811 -3.69016,-39.983003 -39.68984,-39.806081 H 127.83043 53.520277 c -35.99969,-0.176922 -39.68984,3.70727 -39.68984,39.806081 V 177.86558 c 0,36.09881 3.68973,39.80608 39.68984,39.80608 h 74.310153 74.31016 c 36.00011,0 39.68984,-3.70727 39.68984,-39.80608 z"/>
 <path style="fill:#f6f5f4" d="m 239.82523,176.74484 c 0,35.29673 -3.62542,39.09461 -38.99353,38.92162 H 127.82523 54.818767 c -35.36812,0.17299 -38.99353,-3.62489 -38.99353,-38.92162 V 78.588074 c 0,-35.296716 3.625,-38.921616 38.99353,-38.921616 h 73.006463 73.00647 c 35.36853,0 38.99353,3.6249 38.99353,38.921616 z"/>
 <path style="opacity:0.3;fill:#ffffff" d="m 15.825984,119.86077 v 66.67439 c 0,26.41995 3.624067,29.26289 38.992187,29.1334 h 73.007809 73.00586 c 35.36811,0.12949 38.99414,-2.71345 38.99414,-29.1334 v -66.67439 z"/>
 <path style="opacity:0.3;fill:#ffffff" d="m 54.818171,39.667201 c -35.36853,0 -38.992187,3.623202 -38.992187,38.919923 v 98.158206 c 0,0.0882 0.0019,0.16224 0.002,0.25 V 80.585174 c -4.7e-5,-35.29672 3.625564,-38.921879 38.994094,-38.921879 h 73.005852 73.00586 c 35.28016,0 38.97394,3.621035 38.99219,38.671879 v -1.74805 c 0,-35.296721 -3.62561,-38.919923 -38.99414,-38.919923 h -73.00586 z"/>
 <path style="opacity:0.2" d="m 15.825984,174.74533 v 2 c 0,35.29673 3.624067,39.09487 38.992187,38.92188 h 73.007809 73.00586 c 35.36811,0.17299 38.99414,-3.62515 38.99414,-38.92188 v -2 c 0,35.29673 -3.62603,39.09487 -38.99414,38.92188 H 127.82598 54.818171 c -35.36812,0.17299 -38.992187,-3.62515 -38.992187,-38.92188 z"/>
 <g transform="translate(-0.0348155,3.2996619)">
  <g transform="translate(48.321671,-238.10913)">
   <g transform="translate(-7.465e-4)">
    <path style="fill:url(#linearGradient965)" d="M 239.82617 102.01172 L 239.82617 78.587891 C 239.82617 78.128071 239.80403 77.806553 239.80273 77.357422 C 234.18057 77.54362 228.45485 79.508809 223.61914 83.65625 L 134.79297 172.48828 A 12.222765 12.222765 0 1 0 152.07227 189.76953 L 239.82617 102.01172 z" transform="translate(-48.286109,234.80947)"/>
    <path d="m 152.97315,341.82207 c 14.62629,0.006 21.84118,17.78779 11.35033,27.98279 l -57.03021,57.03237 A 16.296108,16.296108 0 1 1 84.247095,403.79105 l 57.032365,-57.03237 a 16.29558,16.29558 0 0 1 11.69369,-4.93661 z" font-weight="400" overflow="visible" style="fill:url(#o)"/>
    <path d="m 105.74707,362.14727 c 23.85166,0 43.18998,19.33616 43.18998,43.18998 0,23.85383 -19.33832,43.18999 -43.18998,43.18999 H 62.557086 v -43.18999 c 0,-23.85382 19.336155,-43.18998 43.189984,-43.18998 z" style="fill:url(#p)"/>
    <circle id="ellipse104" cx="-107.9" cy="-385.908" r="6.472" overflow="visible" transform="scale(-1)" style="opacity:0.3;fill:#ffffff"/>
    <path d="m -32.460872,318.67008 v 51.82798 a 20.808933,20.808933 0 0 1 14.410337,-2.16814 20.808933,20.808933 0 0 1 12.2357218,7.9124 c 3.8071968,5.16121 4.99492123,11.79519 5.30588913,18.20242 0.31096786,6.40508 -0.14468644,12.87062 0.85300213,19.20659 1.35832494,8.63799 5.48512754,16.83113 11.68288994,22.99866 6.197763,6.16969 14.440571,10.2641 23.113119,11.38056 5.636293,0.72775 11.348168,0.43622 17.031969,0.45781 l 10.38503,0.0389 v -2.86782 -1.45118 a 154.24654,154.24654 0 0 0 -13.291715,-2.5007 c -2.900208,-0.41463 -5.826329,-0.75151 -8.635837,-1.58723 -2.807349,-0.83573 -5.528318,-2.21781 -7.471867,-4.4097 -1.634741,-1.84421 -2.647546,-4.18943 -3.088083,-6.61455 -0.442698,-2.42511 -0.328244,-4.92797 0.107974,-7.35309 0.872438,-4.8524 3.001704,-9.37007 4.599733,-14.03243 5.17632,-15.09058 4.686113,-31.9541 -0.809812,-46.93023 -6.059554,-16.50505 -18.45292,-30.90891 -34.57358053,-37.92944 A 58.464118,58.464118 0 0 0 -32.460872,318.67008 Z" style="fill:url(#q)"/>
    <path d="m 42.918603,440.69689 9.251294,7.79147 44.939174,0.0389 -8.873382,-8.5365 c -8.819394,-8.48684 -19.48516,-13.05849 -25.678603,-13.05849 0,12.95699 -12.011132,15.33244 -19.638483,13.7668 z" style="fill:url(#r)"/>
   </g>
  </g>
 </g>
</svg>
